X:2805
T:Ice on the Water
O:England
M:3/4
L:1/8
S:Rodney Miller
C:George Reynolds
N:swung, optionally
K:G
D2|B2 B3 B|c2 d3 d|cBAGFG|BG D2 D2|B2 B3 B|c2 d3 d|cBAGFG|A4 D2|
B2 B3 B|c2 d3 d|cBAGFG|BG D2 DE|=F2  F3 F|G4 Ac|_BAGFDF|G4:|
d2|g2 g2 g2|gf d3 e|=fefagf|ec G3 d|g2 g2 g2|gf d3 e|=fedcBc|d4 df|
g2 g2 g2|gf d3 e|=fefagf|ec G2 GA|_B2 B2  Bd|c_B A2 Ac|_BAGFDF|G4:|


